!!!COM: Corelli, Arcangelo
!!!OPR: Sonata da camera
!!!OPS: 4
!!!ONM: 7
!!!OMV: 5
!!!OTL: Giga
!!!OMD: Allegro
**kern	**fb	**kern	**kern	**kern
*part4	*part4	*part3	*part2	*part1
*staff4	*	*staff3	*staff2	*staff1
*I"Organo	*	*I"Violone	*I"Violino II	*I"Violino I
*clefF4	*	*clefF4	*clefG2	*clefG2
*k[b-]	*	*k[b-]	*k[b-]	*k[b-]
*F:	*	*F:	*F:	*F:
*M4/4	*	*M4/4	*M4/4	*M12/8
*met(c)	*	*met(c)	*met(c)	*
=	=	=	=	=
2F	.	2F	2a	(8ffL
.	.	.	.	8aa)
.	.	.	.	8ffJ
.	.	.	.	(8ccL
4BB-	.	4BB-	4b-	8ff)
.	.	.	.	8ccJ
4F	.	4F	4cc	(8ddL
.	.	.	.	8ff)
.	.	.	.	8ddJ
.	.	.	.	(8aL
.	.	.	.	8cc)
.	.	.	.	8aJ
=	=	=	=	=
4D	6	4D	4f	.
4E	6 5	4E	4g	.
2F	.	2F	2c	(8b-L
.	.	.	.	8dd)
.	.	.	.	8b-J
.	.	.	.	(8gL
.	.	.	.	8cc)
.	.	.	.	8gJ
.	.	.	.	(8aL
.	.	.	.	8cc)
.	.	.	.	8aJ
.	.	.	.	(8fL
.	.	.	.	8a)
.	.	.	.	8fJ
=	=	=	=	=
2E	6	2E	2cc	.
4D	7	4D	4cc	.
4G	n	4G	4bn	.
.	.	.	.	(8gL
.	.	.	.	8cc)
.	.	.	.	8gJ
.	.	.	.	(8eL
.	.	.	.	8g)
.	.	.	.	8eJ
.	.	.	.	(8fL
.	.	.	.	8a)
.	.	.	.	8fJ
.	.	.	.	(8dL
.	.	.	.	8g)
.	.	.	.	8dJ
=	=	=	=	=
2C	.	2C	4cc	.
.	.	.	4e	.
4D	6	4D	4f	.
4E	6 5	4E	4g	.
.	.	.	.	(8eL
.	.	.	.	8d)
.	.	.	.	8cJ
.	.	.	.	(8ccL
.	.	.	.	8dd)
.	.	.	.	8aJ
.	.	.	.	(8b-L
.	.	.	.	8dd)
.	.	.	.	8b-J
.	.	.	.	(8gL
.	.	.	.	8cc)
.	.	.	.	8gJ
=	=	=	=	=
2F	.	2F	4c	.
.	.	.	4a	.
4G	-6	4G	4b-	.
4A	-5	4A	4cc	.
.	.	.	.	(8aL
.	.	.	.	8g)
.	.	.	.	8fJ
.	.	.	.	(8ffL
.	.	.	.	8gg)
.	.	.	.	8ddJ
.	.	.	.	(8ee-XL
.	.	.	.	8gg)
.	.	.	.	8ee-J
.	.	.	.	(8ccL
.	.	.	.	8ff)
.	.	.	.	8ccJ
=	=	=	=	=
2B-	5	2B-	4f	.
.	6	.	2b-	.
4c	7	4c	.	.
4d	5	4d	4a	.
.	.	.	.	(8ddL
.	.	.	.	8cc)
.	.	.	.	8b-J
.	.	.	.	(8ddL
.	.	.	.	8gg)
.	.	.	.	8ffJ
.	.	.	.	(8eeL
.	.	.	.	8dd)
.	.	.	.	8ccJ
.	.	.	.	(8ffL
.	.	.	.	8gg)
.	.	.	.	8aaJ
=	=	=	=	=
4B-	6 5	4B-	4.g	.
4c	.	4c	.	.
.	.	.	8cc	.
2F	.	2F	2a	.
.	.	.	.	(8ddL
.	.	.	.	8ee)
.	.	.	.	8ffJ
.	.	.	.	(8ccL
.	.	.	.	8ff)
.	.	.	.	8eeJ
.	.	.	.	(8ffL
.	.	.	.	8cc)
.	.	.	.	8aJ
.	.	.	.	(8fL
.	.	.	.	8a)
.	.	.	.	8fJ
=	=	=	=	=
2E	6	2E	2cc	.
2F	.	2F	2cc	.
.	.	.	.	(8gL
.	.	.	.	8e)
.	.	.	.	8gJ
.	.	.	.	(8ccL
.	.	.	.	8g)
.	.	.	.	8ccJ
.	.	.	.	(8aL
.	.	.	.	8f)
.	.	.	.	8aJ
.	.	.	.	(8ccL
.	.	.	.	8ff)
.	.	.	.	8ccJ
=	=	=	=	=
2BBn	6	2BBn	2g	.
4C	.	4C	4g	.
4E	6	4E	4gg	.
.	.	.	.	(8ddL
.	.	.	.	8bn)
.	.	.	.	8ddJ
.	.	.	.	(8ggL
.	.	.	.	8dd)
.	.	.	.	8ggJ
.	.	.	.	(8eeL
.	.	.	.	8cc)
.	.	.	.	8eeJ
.	.	.	.	(8cccL
.	.	.	.	8ee)
.	.	.	.	8cccJ
=	=	=	=	=
2F	5	2F	4cc	.
.	6	.	2ff	.
4G	7 n	4G	.	.
4A	5	4A	4ee	.
.	.	.	.	(8aaL
.	.	.	.	8ff)
.	.	.	.	8aaJ
.	.	.	.	(8dddL
.	.	.	.	8ff)
.	.	.	.	8dddJ
.	.	.	.	(8bbnL
.	.	.	.	8gg)
.	.	.	.	8bbJ
.	.	.	.	(8cccL
.	.	.	.	8ee)
.	.	.	.	8cccJ
=	=	=	=	=
4F	6 5	4F	4.dd	.
4G	n	4G	.	.
.	.	.	8gg	.
2C	.	2C	2ee	.
.	.	.	.	(8ffL
.	.	.	.	8bbn)
.	.	.	.	8cccJ
.	.	.	.	(8ffL
.	.	.	.	8ccc)
.	.	.	.	8bbJ
.	.	.	.	2.ccT
=:|!|:	=:|!|:	=:|!|:	=:|!|:	=:|!|:
2A	6	2A	2cc	.
4B-	.	4B-	4ff	.
4A	6	4A	4f	.
.	.	.	.	(8ffL
.	.	.	.	8aa)
.	.	.	.	8ffJ
.	.	.	.	(8ccL
.	.	.	.	8ff)
.	.	.	.	8ccJ
.	.	.	.	(8ddL
.	.	.	.	8ff)
.	.	.	.	8ddJ
.	.	.	.	(8ccL
.	.	.	.	8ff)
.	.	.	.	8ccJ
=	=	=	=	=
4B-	.	4B-	2r	.
4A	6	4A	.	.
2B-	5	2B-	4b-	.
.	6	.	4B-	.
.	.	.	.	(8ddL
.	.	.	.	8ff)
.	.	.	.	8ddJ
.	.	.	.	(8ccL
.	.	.	.	8ff)
.	.	.	.	8ccJ
.	.	.	.	(8ddL
.	.	.	.	8ff)
.	.	.	.	8ggJ
.	.	.	.	(8ddL
.	.	.	.	8gg)
.	.	.	.	8ddJ
=	=	=	=	=
4c	.	4c	2r	.
4Bn	6	4Bn	.	.
4c	.	4c	4gg	.
4B	6	4B	4g	.
.	.	.	.	(8eeL
.	.	.	.	8gg)
.	.	.	.	8eeJ
.	.	.	.	(8ddL
.	.	.	.	8gg)
.	.	.	.	8ddJ
.	.	.	.	(8eeL
.	.	.	.	8gg)
.	.	.	.	8eeJ
.	.	.	.	(8ddL
.	.	.	.	8gg)
.	.	.	.	8ddJ
=	=	=	=	=
4c	.	4c	2r	.
4Bn	6	4Bn	.	.
2c	5	2c	4cc	.
.	6	.	4c	.
.	.	.	.	(8eeL
.	.	.	.	8gg)
.	.	.	.	8eeJ
.	.	.	.	(8ddL
.	.	.	.	8gg)
.	.	.	.	8ddJ
.	.	.	.	(8eeL
.	.	.	.	8gg)
.	.	.	.	8aaJ
.	.	.	.	(8eeL
.	.	.	.	8aa)
.	.	.	.	8eeJ
=	=	=	=	=
4d	.	4d	2r	.
4c#X	6	4c#X	.	.
4d	.	4d	4aa	.
4c#	6	4c#	4a	.
.	.	.	.	(8ffL
.	.	.	.	8aa)
.	.	.	.	8ffJ
.	.	.	.	(8eeL
.	.	.	.	8aa)
.	.	.	.	8eeJ
.	.	.	.	(8ffL
.	.	.	.	8aa)
.	.	.	.	8ffJ
.	.	.	.	(8eeL
.	.	.	.	8aa)
.	.	.	.	8eeJ
=	=	=	=	=
4d	.	4d	2r	.
4c#X	6	4c#X	.	.
4d	.	4d	4dd	.
4cn	6	4cn	4a	.
.	.	.	.	(8ffL
.	.	.	.	8aa)
.	.	.	.	8ffJ
.	.	.	.	(8eeL
.	.	.	.	8aa)
.	.	.	.	8eeJ
.	.	.	.	(8ffL
.	.	.	.	8aa)
.	.	.	.	8ffJ
.	.	.	.	(8eeL
.	.	.	.	8aa)
.	.	.	.	8eeJ
=	=	=	=	=
4B-	5	4B-	4dd	.
4G	.	4G	4bb-	.
4A	#	4A	4ee	.
4F	6	4F	4ff	.
.	.	.	.	(8ddL
.	.	.	.	8ff)
.	.	.	.	8bb-J
.	.	.	.	(8ddL
.	.	.	.	8gg)
.	.	.	.	8bb-J
.	.	.	.	(8cc#XL
.	.	.	.	8ee)
.	.	.	.	8aaJ
.	.	.	.	(8ddL
.	.	.	.	8aa)
.	.	.	.	8dddJ
=	=	=	=	=
4G	6 5 n	4G	4.ee	.
4A	#	4A	.	.
.	.	.	8aa	.
2D	.	2D	2ff	.
.	.	.	.	(8bbnL
.	.	.	.	8ccc#X)
.	.	.	.	8dddJ
.	.	.	.	(8eeL
.	.	.	.	8ddd)
.	.	.	.	8ccc#J
.	.	.	.	2.dd
=	=	=	=	=
2AA	6	2AA	2cc	.
4BB-	.	4BB-	4b-	.
4F	.	4F	4cc	.
.	.	.	.	(8ffL
.	.	.	.	8aa)
.	.	.	.	8ffJ
.	.	.	.	(8ccL
.	.	.	.	8ff)
.	.	.	.	8ccJ
.	.	.	.	(8ddL
.	.	.	.	8ff)
.	.	.	.	8ddJ
.	.	.	.	(8aL
.	.	.	.	8cc)
.	.	.	.	8aJ
=	=	=	=	=
4D	6	4D	4f	.
4E	6 5	4E	4g	.
2F	.	2F	2c	.
.	.	.	.	(8b-L
.	.	.	.	8dd)
.	.	.	.	8b-J
.	.	.	.	(8gL
.	.	.	.	8cc)
.	.	.	.	8gJ
.	.	.	.	(8aL
.	.	.	.	8cc)
.	.	.	.	8aJ
.	.	.	.	(8fL
.	.	.	.	8a)
.	.	.	.	8fJ
=	=	=	=	=
2E	6	2E	2cc	.
4D	7	4D	4cc	.
4G	n	4G	4bn	.
.	.	.	.	(8gL
.	.	.	.	8b-)
.	.	.	.	8gJ
.	.	.	.	(8eL
.	.	.	.	8g)
.	.	.	.	8eJ
.	.	.	.	(8fL
.	.	.	.	8a)
.	.	.	.	8fJ
.	.	.	.	(8dL
.	.	.	.	8g)
.	.	.	.	8dJ
=	=	=	=	=
4C	.	4C	2cc	.
4AA	6	4AA	.	.
4BB-	6	4BB-	4g	.
4C	6	4C	4a	.
.	.	.	.	(8eL
.	.	.	.	8d)
.	.	.	.	8cJ
.	.	.	.	(8fL
.	.	.	.	8A)
.	.	.	.	8fJ
.	.	.	.	(8dL
.	.	.	.	8B-)
.	.	.	.	8gJ
.	.	.	.	(8eL
.	.	.	.	8c)
.	.	.	.	8aJ
=	=	=	=	=
4D	6	4D	4b-	.
4E	6	4E	4cc	.
4F	.	4F	4cc	.
4BB-	6	4BB-	4r	.
.	.	.	.	(8fL
.	.	.	.	8d)
.	.	.	.	8b-J
.	.	.	.	(8gL
.	.	.	.	8e)
.	.	.	.	8ccJ
.	.	.	.	(8aL
.	.	.	.	8f)
.	.	.	.	8ccJ
.	.	.	.	(8ddL
.	.	.	.	8b-)
.	.	.	.	8ggJ
=	=	=	=	=
4C	.	4C	4cc	.
4CC	7	4CC	4b-	.
4F	.	4F	4a	.
4E	6 2	4E	4r	.
.	.	.	.	(8eeL
.	.	.	.	8cc)
.	.	.	.	8ffJ
.	.	.	.	(8ffL
.	.	.	.	8gg)
.	.	.	.	8eeJ
.	.	.	.	(8ffL
.	.	.	.	8gg
.	.	.	.	8aaJ
.	.	.	.	8ffL
.	.	.	.	8gg
.	.	.	.	8aaJ
=	=	=	=	=
4D	.	4D	4f	.
4C	6	4C	4a	.
4BB-	.	4BB-	4d	.
4AA	6	4AA	4r	.
.	.	.	.	8ffL
.	.	.	.	8gg
.	.	.	.	8aaJ
.	.	.	.	8ffL
.	.	.	.	8gg
.	.	.	.	8aaJ
.	.	.	.	8ffL
.	.	.	.	8gg
.	.	.	.	8aaJ
.	.	.	.	8ffL
.	.	.	.	8gg
.	.	.	.	8aaJ)
=	=	=	=	=
4BB-	6 5	4BB-	4.g	.
4C	.	4C	.	.
.	.	.	8cc	.
2FF	.	2FF	2a	.
.	.	.	.	(8ddL
.	.	.	.	8ee)
.	.	.	.	8ffJ
.	.	.	.	(8ccL
.	.	.	.	8ff)
.	.	.	.	8eeJ
.	.	.	.	2.ff
=:|!	=:|!	=:|!	=:|!	=:|!
*-	*-	*-	*-	*-
!!!system-decoration: [{s1,s2},s3,s4]
!!!YEM: CC BY-NC-SA 4.0; CCARH; DCML